Newaita-dark/apps/24/com.github.freeeradicals.elements.svg

<svg height="24" viewBox="0 0 24 24" width="24" xmlns="http://www.w3.org/2000/svg" xmlns:xlink="http://www.w3.org/1999/xlink"><linearGradient id="a" gradientUnits="userSpaceOnUse" x1="11.90739" x2="11.90739" y1="21.02545225" y2="22.01773525002"><stop offset="0" stop-opacity=".27451"/><stop offset="1" stop-opacity="0"/></linearGradient><linearGradient id="b"><stop offset="0" stop-opacity=".313726"/><stop offset=".222222" stop-opacity=".27451"/><stop offset="1" stop-opacity="0"/></linearGradient><radialGradient id="c" cx="450.908936" cy="189.579361" gradientTransform="matrix(.00000013 -.0585994 -.105479 -.00000008 39.097986 47.696499)" gradientUnits="userSpaceOnUse" r="21.166656" xlink:href="#b"/><radialGradient id="d" cx="450.908936" cy="189.579361" gradientTransform="matrix(-.00000013 .0585994 .105479 .00000008 -15.28321 -5.645609)" gradientUnits="userSpaceOnUse" r="21.166656" xlink:href="#b"/><radialGradient id="e" cx="450.908936" cy="189.579361" gradientTransform="matrix(-.00000013 -.0585994 .105479 -.00000008 -15.28321 47.696499)" gradientUnits="userSpaceOnUse" r="21.166656" xlink:href="#b"/><radialGradient id="f" cx="450.908936" cy="189.579361" gradientTransform="matrix(.00000013 .0585994 -.105479 .00000008 39.097985 -5.64561)" gradientUnits="userSpaceOnUse" r="21.166656" xlink:href="#b"/><linearGradient id="g" gradientUnits="userSpaceOnUse" x1="7.93826174998" x2="7.93826174998" y1="21.02545025" y2="2.17207850005"><stop offset="0" stop-color="#42a5f5"/><stop offset="1" stop-color="#64b5f6"/></linearGradient><linearGradient id="h"><stop offset="0" stop-color="#bdbdbd"/><stop offset="1" stop-color="#e0e0e0"/></linearGradient><linearGradient id="i" gradientUnits="userSpaceOnUse" x1="7.93824" x2="7.93824" xlink:href="#h" y1="21.02539814717" y2="2.17207777507"/><linearGradient id="j" gradientUnits="userSpaceOnUse" x1="17.8610895" x2="17.8610895" xlink:href="#h" y1="9.61419860937" y2="3.16436075"/><path d="m4.464844 20.953125h14.882812v1.101563h-14.882812zm0 0" fill="url(#a)"/><path d="m19.347656 21.027344h1.988282v-.996094h-1.988282zm0 0" fill="url(#c)"/><path d="m4.464844 21.027344h-1.984375v.992187h1.984375zm0 0" fill="url(#d)"/><path d="m4.464844 21.027344h-1.984375v-.996094h1.984375zm0 0" fill="url(#e)"/><path d="m19.347656 21.027344h1.988282v.992187h-1.988282zm0 0" fill="url(#f)"/><path d="m3.472656 2.171875h16.867188c.550781 0 .996094.445313.996094.992187v16.867188c0 .550781-.445313.996094-.996094.996094h-16.867188c-.546875 0-.992187-.445313-.992187-.996094v-16.867188c0-.546874.445312-.992187.992187-.992187zm0 0" fill="url(#g)"/><path d="m3.472656 2.171875c-.550781 0-.992187.441406-.992187.992187v.125c0-.550781.441406-.992187.992187-.992187h16.867188c.550781 0 .996094.441406.996094.992187v-.125c0-.550781-.445313-.992187-.996094-.992187zm0 0" fill="#e6e6e6" fill-opacity=".392157"/><path d="m3.472656 21.027344c-.550781 0-.992187-.445313-.992187-.996094v-.121094c0 .546875.441406.992188.992187.992188h16.867188c.550781 0 .996094-.445313.996094-.992188v.121094c0 .550781-.445313.996094-.996094.996094zm0 0" fill-opacity=".196078"/><path d="m74.076259-168.671091h359.798975c11.748878 0 21.247971 9.499093 21.247971 21.164646v359.798974c0 11.748878-9.499093 21.247971-21.247971 21.247971h-359.798975c-11.665552 0-21.164645-9.499093-21.164645-21.247971v-359.798974c0-11.665553 9.499093-21.164646 21.164645-21.164646zm0 0" fill="none" stroke="#212121" stroke-linecap="round" stroke-width="3" transform="matrix(.0468795 0 0 .0468795 0 10.079087)"/><path d="m4.960938 10.605469c-.273438 0-.496094.222656-.496094.496093v7.441407c0 .277343.222656.496093.496094.496093h.992187c.277344 0 .496094-.21875.496094-.496093v-2.976563h3.472656v2.976563c0 .277343.222656.496093.496094.496093h.992187c.277344 0 .496094-.21875.496094-.496093v-7.441407c0-.273437-.21875-.496093-.496094-.496093h-.992187c-.273438 0-.496094.222656-.496094.496093v2.976563h-3.472656v-2.976563c0-.273437-.21875-.496093-.496094-.496093zm0 0" fill="url(#i)"/><path d="m4.960938 10.605469c-.273438 0-.496094.222656-.496094.496093v.25c0-.277343.222656-.496093.496094-.496093h.992187c.277344 0 .496094.21875.496094.496093v-.25c0-.273437-.21875-.496093-.496094-.496093zm5.457031 0c-.273438 0-.496094.222656-.496094.496093v.25c0-.277343.222656-.496093.496094-.496093h.992187c.277344 0 .496094.21875.496094.496093v-.25c0-.273437-.21875-.496093-.496094-.496093zm-3.96875 3.472656v.25h3.472656v-.25zm0 0" fill="#fff"/><path d="m6.449219 15.566406v.496094h3.472656v-.496094zm-1.984375 2.976563v.496093c0 .277344.222656.496094.496094.496094h.992187c.277344 0 .496094-.21875.496094-.496094v-.496093c0 .277343-.21875.496093-.496094.496093h-.992187c-.273438 0-.496094-.21875-.496094-.496093zm5.457031 0v.496093c0 .277344.222656.496094.496094.496094h.992187c.277344 0 .496094-.21875.496094-.496094v-.496093c0 .277343-.21875.496093-.496094.496093h-.992187c-.273438 0-.496094-.21875-.496094-.496093zm0 0" fill-opacity=".235294"/><path d="m399.961827 855.036503c-22.04514 0-39.996183 17.951043-39.996183 39.996183v599.94274c0 22.36007 17.951043 39.996182 39.996183 39.996182h79.992365c22.360071 0 39.996183-17.636112 39.996183-39.996182v-239.977096h279.973278v239.977096c0 22.36007 17.951043 39.996182 39.996183 39.996182h79.992365c22.360071 0 39.996183-17.636112 39.996183-39.996182v-599.94274c0-22.04514-17.636112-39.996183-39.996183-39.996183h-79.992365c-22.04514 0-39.996183 17.951043-39.996183 39.996183v239.977096h-279.973278v-239.977096c0-22.04514-17.636112-39.996183-39.996183-39.996183zm0 0" fill="none" stroke="#212121" stroke-linecap="round" stroke-linejoin="round" stroke-width="11.338583" transform="scale(.0124035)"/><path d="m18.347656 3.59375c-.148437.003906-.285156.0625-.386718.164062l-1.488282 1.488282c-.148437.144531-.203125.351562-.152344.546875.050782.195312.203126.351562.398438.402343.199219.050782.40625-.007812.546875-.152343l.355469-.355469-.261719 2.371094h-.988281c-.203125-.003906-.390625.105468-.492188.28125-.101562.171875-.101562.390625 0 .566406.101563.175781.289063.28125.492188.277344h2.976562c.308594-.003906.554688-.253906.554688-.5625s-.246094-.558594-.554688-.5625h-.859375l.429688-3.839844c.015625-.160156-.035157-.320312-.144531-.441406-.109376-.121094-.265626-.1875-.425782-.183594zm0 0" fill="url(#j)"/><path d="m18.347656 3.59375c-.148437.003906-.285156.0625-.386718.164062l-1.488282 1.488282c-.132812.128906-.195312.316406-.164062.5.019531-.117188.078125-.226563.164062-.308594l1.488282-1.488281c.101562-.101563.238281-.160157.386718-.164063.277344-.003906.519532.195313.5625.472656l.007813-.039062c.015625-.160156-.035157-.320312-.144531-.441406-.109376-.121094-.265626-.1875-.425782-.183594zm-.726562 2.347656-.03125.03125-.230469 2.085938h-.988281c-.164063 0-.324219.070312-.433594.199218-.109375.125-.15625.292969-.125.457032.046875-.269532.285156-.46875.558594-.464844h.988281l.230469-2.085938.007812-.007812zm.898437 2.117188-.03125.253906h.023438l.007812-.0625h.828125c.273438.003906.5.199219.546875.464844.027344-.160156-.015625-.328125-.121093-.453125-.105469-.125-.261719-.199219-.425782-.203125zm0 0" fill="#fff"/><path d="m18.902344 4.339844-.414063 3.71875h.035157l.394531-3.523438c.003906-.066406 0-.132812-.015625-.195312zm-1.28125 1.347656-.355469.355469c-.140625.144531-.34375.203125-.539063.152343-.191406-.046874-.347656-.195312-.402343-.386718-.074219.246094.035156.511718.257812.640625.222657.132812.503907.09375.683594-.09375l.316406-.3125zm-1.796875 3.089844c-.050781.171875-.015625.355468.09375.5.105469.140625.277343.222656.453125.222656h2.976562c.175782-.003906.339844-.089844.445313-.230469s.136719-.320312.089843-.488281c-.070312.234375-.285156.398438-.535156.402344h-2.976562c-.25.003906-.476563-.164063-.546875-.40625zm0 0" fill-opacity=".235294"/><path d="m391.379292-138.340654c-3.166364.083325-6.082753 1.333206-8.249212 3.499666l-31.746969 31.746968c-3.166364 3.083039-4.332919 7.499284-3.249689 11.665553 1.083229 4.166269 4.332919 7.499284 8.499188 8.582514 4.249594 1.083229 8.665839-.166651 11.665553-3.24969l7.582609-7.582609-5.5828 50.578503h-21.081321c-4.332919-.083325-8.332537 2.249785-10.498997 5.999427-2.16646 3.666317-2.16646 8.332538 0 12.08218s6.166078 5.999427 10.498997 5.916101h63.493937c6.582705-.083325 11.832204-5.416149 11.832204-11.998854s-5.249499-11.915529-11.832204-11.998854h-18.331583l9.165792-81.908845c.333301-3.41634-.749929-6.832681-3.083039-9.415767-2.333111-2.583087-5.666126-3.999618-9.082466-3.916293zm0 0" fill="none" stroke="#212121" stroke-linecap="round" stroke-linejoin="round" stroke-width="3" transform="matrix(.0468795 0 0 .0468795 0 10.079087)"/></svg>

<?xml version="1.0" encoding="UTF-8"?>
<svg xmlns="http://www.w3.org/2000/svg" xmlns:xlink="http://www.w3.org/1999/xlink" width="24px" height="24px" viewBox="0 0 24 24" version="1.1">
<defs>
<linearGradient id="linear0" gradientUnits="userSpaceOnUse" x1="254" y1="233.5" x2="254" y2="254.666672" gradientTransform="matrix(0.0468795,0,0,0.0468795,-0.0000028613,10.079089)">
<stop offset="0" style="stop-color:rgb(0%,0%,0%);stop-opacity:0.27451;"/>
<stop offset="1" style="stop-color:rgb(0%,0%,0%);stop-opacity:0;"/>
</linearGradient>
<radialGradient id="radial0" gradientUnits="userSpaceOnUse" cx="450.908936" cy="189.579361" fx="450.908936" fy="189.579361" r="21.166656" gradientTransform="matrix(0.000000130628,-0.0585994,-0.105479,-0.0000000761539,39.097986,47.696499)">
<stop offset="0" style="stop-color:rgb(0%,0%,0%);stop-opacity:0.313726;"/>
<stop offset="0.222222" style="stop-color:rgb(0%,0%,0%);stop-opacity:0.27451;"/>
<stop offset="1" style="stop-color:rgb(0%,0%,0%);stop-opacity:0;"/>
</radialGradient>
<radialGradient id="radial1" gradientUnits="userSpaceOnUse" cx="450.908936" cy="189.579361" fx="450.908936" fy="189.579361" r="21.166656" gradientTransform="matrix(-0.000000130628,0.0585994,0.105479,0.0000000761539,-15.28321,-5.645609)">
<stop offset="0" style="stop-color:rgb(0%,0%,0%);stop-opacity:0.313726;"/>
<stop offset="0.222222" style="stop-color:rgb(0%,0%,0%);stop-opacity:0.27451;"/>
<stop offset="1" style="stop-color:rgb(0%,0%,0%);stop-opacity:0;"/>
</radialGradient>
<radialGradient id="radial2" gradientUnits="userSpaceOnUse" cx="450.908936" cy="189.579361" fx="450.908936" fy="189.579361" r="21.166656" gradientTransform="matrix(-0.000000130628,-0.0585994,0.105479,-0.0000000761539,-15.28321,47.696499)">
<stop offset="0" style="stop-color:rgb(0%,0%,0%);stop-opacity:0.313726;"/>
<stop offset="0.222222" style="stop-color:rgb(0%,0%,0%);stop-opacity:0.27451;"/>
<stop offset="1" style="stop-color:rgb(0%,0%,0%);stop-opacity:0;"/>
</radialGradient>
<radialGradient id="radial3" gradientUnits="userSpaceOnUse" cx="450.908936" cy="189.579361" fx="450.908936" fy="189.579361" r="21.166656" gradientTransform="matrix(0.000000130628,0.0585994,-0.105479,0.0000000761539,39.097985,-5.64561)">
<stop offset="0" style="stop-color:rgb(0%,0%,0%);stop-opacity:0.313726;"/>
<stop offset="0.222222" style="stop-color:rgb(0%,0%,0%);stop-opacity:0.27451;"/>
<stop offset="1" style="stop-color:rgb(0%,0%,0%);stop-opacity:0;"/>
</radialGradient>
<linearGradient id="linear1" gradientUnits="userSpaceOnUse" x1="169.333328" y1="233.5" x2="169.333328" y2="-168.666656" gradientTransform="matrix(0.0468795,0,0,0.0468795,0,10.079087)">
<stop offset="0" style="stop-color:rgb(25.882354%,64.705884%,96.078432%);stop-opacity:1;"/>
<stop offset="1" style="stop-color:rgb(39.215687%,70.980394%,96.470588%);stop-opacity:1;"/>
</linearGradient>
<linearGradient id="linear2" gradientUnits="userSpaceOnUse" x1="640" y1="1695.118164" x2="640" y2="175.118134" gradientTransform="matrix(0.0124035,0,0,0.0124035,0,0.00000000000000141)">
<stop offset="0" style="stop-color:rgb(74.117649%,74.117649%,74.117649%);stop-opacity:1;"/>
<stop offset="1" style="stop-color:rgb(87.843138%,87.843138%,87.843138%);stop-opacity:1;"/>
</linearGradient>
<linearGradient id="linear3" gradientUnits="userSpaceOnUse" x1="381" y1="-9.916667" x2="381" y2="-147.5" gradientTransform="matrix(0.0468795,0,0,0.0468795,0,10.079087)">
<stop offset="0" style="stop-color:rgb(74.117649%,74.117649%,74.117649%);stop-opacity:1;"/>
<stop offset="1" style="stop-color:rgb(87.843138%,87.843138%,87.843138%);stop-opacity:1;"/>
</linearGradient>
</defs>
<g id="surface1">
<path style=" stroke:none;fill-rule:nonzero;fill:url(#linear0);" d="M 4.464844 20.953125 L 19.347656 20.953125 L 19.347656 22.054688 L 4.464844 22.054688 Z M 4.464844 20.953125 "/>
<path style=" stroke:none;fill-rule:nonzero;fill:url(#radial0);" d="M 19.347656 21.027344 L 21.335938 21.027344 L 21.335938 20.03125 L 19.347656 20.03125 Z M 19.347656 21.027344 "/>
<path style=" stroke:none;fill-rule:nonzero;fill:url(#radial1);" d="M 4.464844 21.027344 L 2.480469 21.027344 L 2.480469 22.019531 L 4.464844 22.019531 Z M 4.464844 21.027344 "/>
<path style=" stroke:none;fill-rule:nonzero;fill:url(#radial2);" d="M 4.464844 21.027344 L 2.480469 21.027344 L 2.480469 20.03125 L 4.464844 20.03125 Z M 4.464844 21.027344 "/>
<path style=" stroke:none;fill-rule:nonzero;fill:url(#radial3);" d="M 19.347656 21.027344 L 21.335938 21.027344 L 21.335938 22.019531 L 19.347656 22.019531 Z M 19.347656 21.027344 "/>
<path style=" stroke:none;fill-rule:nonzero;fill:url(#linear1);" d="M 3.472656 2.171875 L 20.339844 2.171875 C 20.890625 2.171875 21.335938 2.617188 21.335938 3.164062 L 21.335938 20.03125 C 21.335938 20.582031 20.890625 21.027344 20.339844 21.027344 L 3.472656 21.027344 C 2.925781 21.027344 2.480469 20.582031 2.480469 20.03125 L 2.480469 3.164062 C 2.480469 2.617188 2.925781 2.171875 3.472656 2.171875 Z M 3.472656 2.171875 "/>
<path style=" stroke:none;fill-rule:nonzero;fill:rgb(90.196079%,90.196079%,90.196079%);fill-opacity:0.392157;" d="M 3.472656 2.171875 C 2.921875 2.171875 2.480469 2.613281 2.480469 3.164062 L 2.480469 3.289062 C 2.480469 2.738281 2.921875 2.296875 3.472656 2.296875 L 20.339844 2.296875 C 20.890625 2.296875 21.335938 2.738281 21.335938 3.289062 L 21.335938 3.164062 C 21.335938 2.613281 20.890625 2.171875 20.339844 2.171875 Z M 3.472656 2.171875 "/>
<path style=" stroke:none;fill-rule:nonzero;fill:rgb(0%,0%,0%);fill-opacity:0.196078;" d="M 3.472656 21.027344 C 2.921875 21.027344 2.480469 20.582031 2.480469 20.03125 L 2.480469 19.910156 C 2.480469 20.457031 2.921875 20.902344 3.472656 20.902344 L 20.339844 20.902344 C 20.890625 20.902344 21.335938 20.457031 21.335938 19.910156 L 21.335938 20.03125 C 21.335938 20.582031 20.890625 21.027344 20.339844 21.027344 Z M 3.472656 21.027344 "/>
<path style="fill:none;stroke-width:3;stroke-linecap:round;stroke-linejoin:miter;stroke:rgb(12.941177%,12.941177%,12.941177%);stroke-opacity:1;stroke-miterlimit:4;" d="M 74.076259 -168.671091 L 433.875234 -168.671091 C 445.624112 -168.671091 455.123205 -159.171998 455.123205 -147.506445 L 455.123205 212.292529 C 455.123205 224.041407 445.624112 233.5405 433.875234 233.5405 L 74.076259 233.5405 C 62.410707 233.5405 52.911614 224.041407 52.911614 212.292529 L 52.911614 -147.506445 C 52.911614 -159.171998 62.410707 -168.671091 74.076259 -168.671091 Z M 74.076259 -168.671091 " transform="matrix(0.0468795,0,0,0.0468795,0,10.079087)"/>
<path style=" stroke:none;fill-rule:nonzero;fill:url(#linear2);" d="M 4.960938 10.605469 C 4.6875 10.605469 4.464844 10.828125 4.464844 11.101562 L 4.464844 18.542969 C 4.464844 18.820312 4.6875 19.039062 4.960938 19.039062 L 5.953125 19.039062 C 6.230469 19.039062 6.449219 18.820312 6.449219 18.542969 L 6.449219 15.566406 L 9.921875 15.566406 L 9.921875 18.542969 C 9.921875 18.820312 10.144531 19.039062 10.417969 19.039062 L 11.410156 19.039062 C 11.6875 19.039062 11.90625 18.820312 11.90625 18.542969 L 11.90625 11.101562 C 11.90625 10.828125 11.6875 10.605469 11.410156 10.605469 L 10.417969 10.605469 C 10.144531 10.605469 9.921875 10.828125 9.921875 11.101562 L 9.921875 14.078125 L 6.449219 14.078125 L 6.449219 11.101562 C 6.449219 10.828125 6.230469 10.605469 5.953125 10.605469 Z M 4.960938 10.605469 "/>
<path style=" stroke:none;fill-rule:nonzero;fill:rgb(100%,100%,100%);fill-opacity:1;" d="M 4.960938 10.605469 C 4.6875 10.605469 4.464844 10.828125 4.464844 11.101562 L 4.464844 11.351562 C 4.464844 11.074219 4.6875 10.855469 4.960938 10.855469 L 5.953125 10.855469 C 6.230469 10.855469 6.449219 11.074219 6.449219 11.351562 L 6.449219 11.101562 C 6.449219 10.828125 6.230469 10.605469 5.953125 10.605469 Z M 10.417969 10.605469 C 10.144531 10.605469 9.921875 10.828125 9.921875 11.101562 L 9.921875 11.351562 C 9.921875 11.074219 10.144531 10.855469 10.417969 10.855469 L 11.410156 10.855469 C 11.6875 10.855469 11.90625 11.074219 11.90625 11.351562 L 11.90625 11.101562 C 11.90625 10.828125 11.6875 10.605469 11.410156 10.605469 Z M 6.449219 14.078125 L 6.449219 14.328125 L 9.921875 14.328125 L 9.921875 14.078125 Z M 6.449219 14.078125 "/>
<path style=" stroke:none;fill-rule:nonzero;fill:rgb(0%,0%,0%);fill-opacity:0.235294;" d="M 6.449219 15.566406 L 6.449219 16.0625 L 9.921875 16.0625 L 9.921875 15.566406 Z M 4.464844 18.542969 L 4.464844 19.039062 C 4.464844 19.316406 4.6875 19.535156 4.960938 19.535156 L 5.953125 19.535156 C 6.230469 19.535156 6.449219 19.316406 6.449219 19.039062 L 6.449219 18.542969 C 6.449219 18.820312 6.230469 19.039062 5.953125 19.039062 L 4.960938 19.039062 C 4.6875 19.039062 4.464844 18.820312 4.464844 18.542969 Z M 9.921875 18.542969 L 9.921875 19.039062 C 9.921875 19.316406 10.144531 19.535156 10.417969 19.535156 L 11.410156 19.535156 C 11.6875 19.535156 11.90625 19.316406 11.90625 19.039062 L 11.90625 18.542969 C 11.90625 18.820312 11.6875 19.039062 11.410156 19.039062 L 10.417969 19.039062 C 10.144531 19.039062 9.921875 18.820312 9.921875 18.542969 Z M 9.921875 18.542969 "/>
<path style="fill:none;stroke-width:11.338583;stroke-linecap:round;stroke-linejoin:round;stroke:rgb(12.941177%,12.941177%,12.941177%);stroke-opacity:1;stroke-miterlimit:4;" d="M 399.961827 855.036503 C 377.916687 855.036503 359.965644 872.987546 359.965644 895.032686 L 359.965644 1494.975426 C 359.965644 1517.335496 377.916687 1534.971608 399.961827 1534.971608 L 479.954192 1534.971608 C 502.314263 1534.971608 519.950375 1517.335496 519.950375 1494.975426 L 519.950375 1254.99833 L 799.923653 1254.99833 L 799.923653 1494.975426 C 799.923653 1517.335496 817.874696 1534.971608 839.919836 1534.971608 L 919.912201 1534.971608 C 942.272272 1534.971608 959.908384 1517.335496 959.908384 1494.975426 L 959.908384 895.032686 C 959.908384 872.987546 942.272272 855.036503 919.912201 855.036503 L 839.919836 855.036503 C 817.874696 855.036503 799.923653 872.987546 799.923653 895.032686 L 799.923653 1135.009782 L 519.950375 1135.009782 L 519.950375 895.032686 C 519.950375 872.987546 502.314263 855.036503 479.954192 855.036503 Z M 399.961827 855.036503 " transform="matrix(0.0124035,0,0,0.0124035,0,0)"/>
<path style=" stroke:none;fill-rule:nonzero;fill:url(#linear3);" d="M 18.347656 3.59375 C 18.199219 3.597656 18.0625 3.65625 17.960938 3.757812 L 16.472656 5.246094 C 16.324219 5.390625 16.269531 5.597656 16.320312 5.792969 C 16.371094 5.988281 16.523438 6.144531 16.71875 6.195312 C 16.917969 6.246094 17.125 6.1875 17.265625 6.042969 L 17.621094 5.6875 L 17.359375 8.058594 L 16.371094 8.058594 C 16.167969 8.054688 15.980469 8.164062 15.878906 8.339844 C 15.777344 8.511719 15.777344 8.730469 15.878906 8.90625 C 15.980469 9.082031 16.167969 9.1875 16.371094 9.183594 L 19.347656 9.183594 C 19.65625 9.179688 19.902344 8.929688 19.902344 8.621094 C 19.902344 8.3125 19.65625 8.0625 19.347656 8.058594 L 18.488281 8.058594 L 18.917969 4.21875 C 18.933594 4.058594 18.882812 3.898438 18.773438 3.777344 C 18.664062 3.65625 18.507812 3.589844 18.347656 3.59375 Z M 18.347656 3.59375 "/>
<path style=" stroke:none;fill-rule:nonzero;fill:rgb(100%,100%,100%);fill-opacity:1;" d="M 18.347656 3.59375 C 18.199219 3.597656 18.0625 3.65625 17.960938 3.757812 L 16.472656 5.246094 C 16.339844 5.375 16.277344 5.5625 16.308594 5.746094 C 16.328125 5.628906 16.386719 5.519531 16.472656 5.4375 L 17.960938 3.949219 C 18.0625 3.847656 18.199219 3.789062 18.347656 3.785156 C 18.625 3.78125 18.867188 3.980469 18.910156 4.257812 L 18.917969 4.21875 C 18.933594 4.058594 18.882812 3.898438 18.773438 3.777344 C 18.664062 3.65625 18.507812 3.589844 18.347656 3.59375 Z M 17.621094 5.941406 L 17.589844 5.972656 L 17.359375 8.058594 L 16.371094 8.058594 C 16.207031 8.058594 16.046875 8.128906 15.9375 8.257812 C 15.828125 8.382812 15.78125 8.550781 15.8125 8.714844 C 15.859375 8.445312 16.097656 8.246094 16.371094 8.25 L 17.359375 8.25 L 17.589844 6.164062 L 17.597656 6.15625 Z M 18.519531 8.058594 L 18.488281 8.3125 L 18.511719 8.3125 L 18.519531 8.25 L 19.347656 8.25 C 19.621094 8.253906 19.847656 8.449219 19.894531 8.714844 C 19.921875 8.554688 19.878906 8.386719 19.773438 8.261719 C 19.667969 8.136719 19.511719 8.0625 19.347656 8.058594 Z M 18.519531 8.058594 "/>
<path style=" stroke:none;fill-rule:nonzero;fill:rgb(0%,0%,0%);fill-opacity:0.235294;" d="M 18.902344 4.339844 L 18.488281 8.058594 L 18.523438 8.058594 L 18.917969 4.535156 C 18.921875 4.46875 18.917969 4.402344 18.902344 4.339844 Z M 17.621094 5.6875 L 17.265625 6.042969 C 17.125 6.1875 16.921875 6.246094 16.726562 6.195312 C 16.535156 6.148438 16.378906 6 16.324219 5.808594 C 16.25 6.054688 16.359375 6.320312 16.582031 6.449219 C 16.804688 6.582031 17.085938 6.542969 17.265625 6.355469 L 17.582031 6.042969 Z M 15.824219 8.777344 C 15.773438 8.949219 15.808594 9.132812 15.917969 9.277344 C 16.023438 9.417969 16.195312 9.5 16.371094 9.5 L 19.347656 9.5 C 19.523438 9.496094 19.6875 9.410156 19.792969 9.269531 C 19.898438 9.128906 19.929688 8.949219 19.882812 8.78125 C 19.8125 9.015625 19.597656 9.179688 19.347656 9.183594 L 16.371094 9.183594 C 16.121094 9.1875 15.894531 9.019531 15.824219 8.777344 Z M 15.824219 8.777344 "/>
<path style="fill:none;stroke-width:3;stroke-linecap:round;stroke-linejoin:round;stroke:rgb(12.941177%,12.941177%,12.941177%);stroke-opacity:1;stroke-miterlimit:4;" d="M 391.379292 -138.340654 C 388.212928 -138.257329 385.296539 -137.007448 383.13008 -134.840988 L 351.383111 -103.09402 C 348.216747 -100.010981 347.050192 -95.594736 348.133422 -91.428467 C 349.216651 -87.262198 352.466341 -83.929183 356.63261 -82.845953 C 360.882204 -81.762724 365.298449 -83.012604 368.298163 -86.095643 L 375.880772 -93.678252 L 370.297972 -43.099749 L 349.216651 -43.099749 C 344.883732 -43.183074 340.884114 -40.849964 338.717654 -37.100322 C 336.551194 -33.434005 336.551194 -28.767784 338.717654 -25.018142 C 340.884114 -21.2685 344.883732 -19.018715 349.216651 -19.102041 L 412.710588 -19.102041 C 419.293293 -19.185366 424.542792 -24.51819 424.542792 -31.100895 C 424.542792 -37.6836 419.293293 -43.016424 412.710588 -43.099749 L 394.379005 -43.099749 L 403.544797 -125.008594 C 403.878098 -128.424934 402.794868 -131.841275 400.461758 -134.424361 C 398.128647 -137.007448 394.795632 -138.423979 391.379292 -138.340654 Z M 391.379292 -138.340654 " transform="matrix(0.0468795,0,0,0.0468795,0,10.079087)"/>
</g>
</svg>
